X: 33982
T: Reeker Greeker
R: barndance
M: 4/4
K: Dmajor
|:"D"A2 FA "A"B2 F2|"D"A2 FA "Bm"B^A =A2|"A"GF E2 B2^A2|"D"A2 FA "A"B2^A2|
"D"A2 FA "A"B2F2|"D"A2 FA "Bm"B^A =A2|"A"G2E2 B^A Bc|1 "D"d2F2G2^G2:|2 "D"d4c2=c2||
K: Gmaj
|:"G"B2AB "D"cB A2|"Em" GA Bc "D"d2^d2|"C"e2e2 "F#dim" fe ^d2|"G"d4 "D" d^c =c2|
"G" B2AB "D"cB A2|"Em"GA Bc "D"d2^d2|"C"e^d e=f "D" ^f2 b2|1 "G"g4d2c2:|2 "G"g4"E"^g4||
K: Amaj
|:"A" a2a2 "F#m"fe ^de|"D" fe ^d=d "E"c2B2|"A" A2 AB "F#m"cd ^de|"Bm"fe dc "E"B2g2|
"A" a2a2 "F#m"fe ^de|"D" fe ^d=d "E"c2B2|"A" AB cd "D#dim" ^de fg|"E"ba g2 "A" a4:|

